_assets/images/light.svg

<svg fill="none" height="24" viewBox="0 0 24 24" width="24" xmlns="http://www.w3.org/2000/svg" xmlns:xlink="http://www.w3.org/1999/xlink"><clipPath id="a"><path d="m0 0h24v24h-24z"/></clipPath><g clip-path="url(#a)"><path clip-rule="evenodd" d="m13 24h-2c-.288 0-.563-.125-.753-.341l-.576-.659h4.658l-.576.659c-.19.216-.465.341-.753.341zm1.867-3c.287 0 .52.224.52.5s-.233.5-.52.5h-5.734c-.287 0-.52-.224-.52-.5s.233-.5.52-.5zm-2.871-17c2.983 0 6.004 1.97 6.004 5.734 0 1.937-.97 3.622-1.907 5.252-.907 1.574-1.843 3.201-1.844 5.014h1.001c0-3.286 3.75-6.103 3.75-10.266 0-4.34-3.502-6.734-7.004-6.734-3.498 0-6.996 2.391-6.996 6.734 0 4.163 3.75 6.98 3.75 10.266h.999c.001-1.813-.936-3.44-1.841-5.014-.938-1.63-1.908-3.315-1.908-5.252 0-3.764 3.017-5.734 5.996-5.734zm9.428 7.958c.251.114.362.411.248.662s-.41.363-.662.249l-.91-.414c-.252-.114-.363-.41-.249-.662.114-.251.411-.362.662-.248zm-18.848 0c-.251.114-.362.411-.248.662s.41.363.662.249l.91-.414c.252-.114.363-.41.249-.662-.114-.251-.411-.362-.662-.248zm18.924-2.958h-1c-.276 0-.5-.224-.5-.5s.224-.5.5-.5h1c.276 0 .5.224.5.5s-.224.5-.5.5zm-18-1c.276 0 .5.224.5.5s-.224.5-.5.5h-1c-.276 0-.5-.224-.5-.5s.224-.5.5-.5zm16.818-3.089c.227-.158.284-.469.126-.696-.157-.227-.469-.283-.696-.126l-.821.57c-.227.158-.283.469-.126.696s.469.283.696.126zm-16.636 0c-.227-.158-.284-.469-.126-.696.157-.227.469-.283.696-.126l.821.57c.227.158.283.469.126.696s-.469.283-.696.126zm13.333-3.033c.134-.241.048-.546-.193-.68-.241-.135-.546-.048-.68.192l-.488.873c-.135.241-.048.546.192.681.241.134.546.048.681-.193zm-10.03 0c-.134-.241-.048-.546.193-.68.241-.135.546-.048.68.192l.488.873c.135.241.048.546-.192.681-.241.134-.546.048-.681-.193zm5.515-1.378c0-.276-.224-.5-.5-.5s-.5.224-.5.5v1c0 .276.224.5.5.5s.5-.224.5-.5z" fill="#0b0a0f" fill-rule="evenodd"/></g></svg>

<svg width="24" height="24" viewBox="0 0 24 24" fill="none" xmlns="http://www.w3.org/2000/svg">
<g clip-path="url(#clip0)">
<path fill-rule="evenodd" clip-rule="evenodd" d="M13 24H11C10.712 24 10.437 23.875 10.247 23.659L9.671 23H14.329L13.753 23.659C13.563 23.875 13.288 24 13 24ZM14.867 21C15.154 21 15.387 21.224 15.387 21.5C15.387 21.776 15.154 22 14.867 22H9.133C8.846 22 8.613 21.776 8.613 21.5C8.613 21.224 8.846 21 9.133 21H14.867ZM11.996 4C14.979 4 18 5.97 18 9.734C18 11.671 17.03 13.356 16.093 14.986C15.186 16.56 14.25 18.187 14.249 20H15.25C15.25 16.714 19 13.897 19 9.734C19 5.394 15.498 3 11.996 3C8.498 3 5 5.391 5 9.734C5 13.897 8.75 16.714 8.75 20H9.749C9.75 18.187 8.813 16.56 7.908 14.986C6.97 13.356 6 11.671 6 9.734C6 5.97 9.017 4 11.996 4ZM21.424 11.958C21.675 12.072 21.786 12.369 21.672 12.62C21.558 12.871 21.262 12.983 21.01 12.869L20.1 12.455C19.848 12.341 19.737 12.045 19.851 11.793C19.965 11.542 20.262 11.431 20.513 11.545L21.424 11.958ZM2.576 11.958C2.325 12.072 2.214 12.369 2.328 12.62C2.442 12.871 2.738 12.983 2.99 12.869L3.9 12.455C4.152 12.341 4.263 12.045 4.149 11.793C4.035 11.542 3.738 11.431 3.487 11.545L2.576 11.958ZM21.5 9H20.5C20.224 9 20 8.776 20 8.5C20 8.224 20.224 8 20.5 8H21.5C21.776 8 22 8.224 22 8.5C22 8.776 21.776 9 21.5 9ZM3.5 8C3.776 8 4 8.224 4 8.5C4 8.776 3.776 9 3.5 9H2.5C2.224 9 2 8.776 2 8.5C2 8.224 2.224 8 2.5 8H3.5ZM20.318 4.911C20.545 4.753 20.602 4.442 20.444 4.215C20.287 3.988 19.975 3.932 19.748 4.089L18.927 4.659C18.7 4.817 18.644 5.128 18.801 5.355C18.958 5.582 19.27 5.638 19.497 5.481L20.318 4.911ZM3.682 4.911C3.455 4.753 3.398 4.442 3.556 4.215C3.713 3.988 4.025 3.932 4.252 4.089L5.073 4.659C5.3 4.817 5.356 5.128 5.199 5.355C5.042 5.582 4.73 5.638 4.503 5.481L3.682 4.911ZM17.015 1.878C17.149 1.637 17.063 1.332 16.822 1.198C16.581 1.063 16.276 1.15 16.142 1.39L15.654 2.263C15.519 2.504 15.606 2.809 15.846 2.944C16.087 3.078 16.392 2.992 16.527 2.751L17.015 1.878ZM6.985 1.878C6.851 1.637 6.937 1.332 7.178 1.198C7.419 1.063 7.724 1.15 7.858 1.39L8.346 2.263C8.481 2.504 8.394 2.809 8.154 2.944C7.913 3.078 7.608 2.992 7.473 2.751L6.985 1.878ZM12.5 0.5C12.5 0.224 12.276 0 12 0C11.724 0 11.5 0.224 11.5 0.5V1.5C11.5 1.776 11.724 2 12 2C12.276 2 12.5 1.776 12.5 1.5V0.5Z" fill="#0B0A0F"/>
</g>
<defs>
<clipPath id="clip0">
<rect width="24" height="24" fill="white"/>
</clipPath>
</defs>
</svg>
